client/web/src/Assets/images/delivery.svg

<?xml version="1.0" encoding="utf-8"?>
<svg width="102px" height="93px" viewBox="0 0 102 93" version="1.1" xmlns:xlink="http://www.w3.org/1999/xlink" xmlns="http://www.w3.org/2000/svg">
  <g id="Group">
    <path d="M83.1478 0.0562247C82.9067 0.050844 82.6687 0.111855 82.4599 0.232597L59.7915 13.3275C59.1544 13.5367 58.7763 14.1916 58.9135 14.8484L58.9135 41.0376C58.9132 41.5085 59.1643 41.9438 59.572 42.1791L82.4605 55.4004C82.4751 55.4006 82.4897 55.4006 82.5043 55.4004C82.5224 55.4196 82.5411 55.4383 82.5603 55.4564C82.583 55.4759 82.6064 55.4946 82.6304 55.5124C82.645 55.5127 82.6596 55.5127 82.6742 55.5124C82.6969 55.5319 82.7203 55.5506 82.7443 55.5685C82.763 55.5689 82.7817 55.5689 82.8003 55.5685C82.8235 55.5691 82.8467 55.5691 82.8699 55.5685C82.8886 55.5689 82.9073 55.5689 82.9259 55.5685C82.9538 55.5694 82.9818 55.5694 83.0097 55.5685C83.0243 55.5687 83.0389 55.5687 83.0535 55.5685C83.0769 55.5691 83.1003 55.5691 83.1236 55.5685C83.1423 55.5689 83.1609 55.5689 83.1796 55.5685C83.203 55.5691 83.2264 55.5691 83.2497 55.5685C83.2684 55.5689 83.287 55.5689 83.3057 55.5685C83.3291 55.5691 83.3525 55.5691 83.3758 55.5685C83.3945 55.5689 83.4132 55.5689 83.4318 55.5685C83.4558 55.5506 83.4792 55.5319 83.5019 55.5124C83.5206 55.5128 83.5393 55.5128 83.5579 55.5124C83.5819 55.4946 83.6053 55.4759 83.628 55.4564C83.6431 55.4381 83.6578 55.4195 83.6719 55.4004C83.7005 55.3828 83.7284 55.3641 83.7556 55.3444L106.643 42.1224C107.05 41.8867 107.301 41.4515 107.3 40.9808L107.3 14.7515C107.406 14.1306 107.058 13.5215 106.47 13.2981L83.7546 0.176372C83.5635 0.0658216 83.3476 0.00516962 83.1269 0L83.1478 0.0562247ZM83.1039 2.89255L91.6836 7.8487L71.3994 19.5339L62.8478 14.5948L83.1039 2.89255ZM94.317 9.37013L103.361 14.5935L83.1039 26.2957L74.0322 21.0547L94.3133 9.37193L94.317 9.37013ZM104.677 16.8749L104.677 40.2781L84.4206 51.9785L84.4206 28.5771L104.677 16.8749ZM61.533 16.8749L70.2451 21.9081L70.2451 27.4225C70.2449 27.8933 70.4957 28.3283 70.9031 28.5637C71.3104 28.7992 71.8124 28.7992 72.2197 28.5637C72.6271 28.3283 72.8779 27.8933 72.8777 27.4225L72.8777 23.4229L81.7906 28.5722L81.7906 51.9749L72.8473 46.8085L72.8473 40.3528C72.8529 39.9971 72.7144 39.6543 72.4635 39.4024C72.2125 39.1505 71.8704 39.0109 71.515 39.0153C70.789 39.0256 70.2085 39.6222 70.2176 40.3486L70.2176 45.2895L61.5338 40.2726L61.533 16.8749ZM47.962 44.2868C47.2644 44.2868 46.5575 44.3847 45.8544 44.5776L40.6884 45.9626L35.5225 47.349L30.3566 48.7354L25.1911 50.1218L21.4896 51.1151L21.4896 49.7987C21.4896 47.1791 19.094 45.2415 16.3958 45.242L5.09435 45.242C2.39597 45.242 0 47.1809 0 49.7997L0 81.0334C0 83.6529 2.39485 85.5905 5.09293 85.5905L16.3943 85.5905C19.0928 85.5898 21.4888 83.6523 21.4888 81.0334L21.4888 80.0527C21.5832 80.0442 21.6764 80.0254 21.7668 79.9967L32.0772 77.2326L34.7151 76.6142C35.0813 76.5446 35.4533 76.5163 35.8252 76.5163C36.569 76.5163 37.31 76.6561 38.0087 76.9416C38.7063 77.2271 39.3633 77.6523 39.9363 78.2274L43.0875 81.3839L46.2403 84.541L49.3918 87.6969L52.5429 90.854L55.6939 94.0111C55.7085 94.0114 55.7231 94.0114 55.7377 94.0111L59.4207 97.5619C59.4656 97.6122 59.5143 97.6589 59.5663 97.7017C59.6161 97.7429 59.6688 97.7804 59.7241 97.8138C60.5965 98.4643 61.8655 99.2831 63.1269 99.6213C64.1699 99.901 65.2652 99.9794 66.3554 99.8411C67.4459 99.7012 68.5298 99.3486 69.5378 98.768L122.027 68.4182C126.06 66.0866 127.446 60.9013 125.118 56.8625C124.391 55.6006 123.382 54.589 122.221 53.8747C120.943 53.0884 119.475 52.6617 117.979 52.631C116.485 52.5749 114.964 52.9652 113.578 53.7669L109.324 56.2262C109.159 56.0191 108.985 55.8135 108.8 55.6246C108.319 55.1266 107.773 54.6901 107.181 54.325C105.62 53.3065 103.821 52.954 102.103 53.1079C100.412 53.2604 98.7875 53.8815 97.4075 54.8426L84.8524 62.1031L83.2811 63.0138C83.1893 63.064 83.1038 63.125 83.0265 63.1955L52.4554 45.5138C52.4047 45.4725 52.351 45.435 52.2948 45.4017C51.3595 44.8617 50.3196 44.5008 49.2314 44.3497C48.8219 44.2937 48.4079 44.2659 47.9885 44.2795L47.962 44.2868ZM47.962 46.9598C48.9868 46.9037 50.0315 47.1849 50.9976 47.746L88.0526 69.176C88.3408 69.3411 88.6034 69.5272 88.8509 69.7286C88.9612 69.8825 89.1033 70.0108 89.2676 70.1047C91.0999 71.9237 91.5418 74.7783 90.1833 77.1374C88.5613 79.9514 85.0509 80.8934 82.2412 79.2686L76.3622 75.8674L62.9548 68.1131C62.5471 67.8673 62.0387 67.8609 61.625 68.0963C61.2113 68.3317 60.9568 68.7723 60.9595 69.2485C60.9621 69.7247 61.2215 70.1624 61.6378 70.3932L75.0449 78.1488L80.924 81.5487C84.9567 83.8811 90.1369 82.4902 92.4647 78.4518C94.1746 75.4842 93.8769 71.9 91.9992 69.2817L114.86 56.0628C116.791 54.9464 119.052 55.0555 120.807 56.133C121.605 56.6254 122.295 57.3137 122.802 58.1936C124.425 61.0083 123.483 64.5286 120.675 66.1526L68.1887 96.5018C67.4869 96.9091 66.743 97.1496 65.9946 97.2433C65.2467 97.3412 64.492 97.2993 63.7742 97.0908C63.338 96.9788 61.8541 96.1493 61.2203 95.6835L57.5379 92.1348L54.3966 88.9872L51.2432 85.8302L48.0921 82.6724L44.9412 79.5154L41.7897 76.3588C40.9663 75.5334 40.0097 74.9108 38.9921 74.4959C37.9744 74.0832 36.8952 73.8734 35.8156 73.8734C35.3025 73.8734 34.7894 73.9294 34.2819 74.0132C34.2391 74.0297 34.1972 74.0484 34.1563 74.0692L31.4485 74.703C31.4339 74.7027 31.4192 74.7027 31.4046 74.703L21.4765 77.3669L21.4765 53.8586L25.8604 52.6848L31.0263 51.2985L36.1922 49.912L41.3583 48.5257L46.2237 47.2204C46.345 47.2183 46.4655 47.1995 46.5816 47.1644C47.029 47.0387 47.4917 46.9754 47.9586 46.97L47.962 46.9598ZM16.3884 47.8733C17.8769 47.8733 18.8497 48.826 18.8497 49.7955L18.8497 81.029C18.8491 81.9986 17.8766 82.9527 16.388 82.9527L12.0577 82.9527L12.0577 79.0763L12.0577 75.3903C12.0629 75.0339 11.9235 74.6906 11.6714 74.4388C11.4193 74.187 11.0759 74.0483 10.7198 74.0543C9.99386 74.066 9.41458 74.6639 9.4252 75.3903L9.4252 79.0763L9.4252 82.9501L5.08695 82.9501C3.59858 82.9508 2.62539 81.9974 2.62583 81.0279L2.62583 49.7937C2.62583 48.8242 3.59882 47.8708 5.08748 47.8708L16.3884 47.8733ZM102.757 55.7236C103.811 55.7236 104.823 55.9599 105.718 56.549C105.732 56.5681 105.747 56.5867 105.762 56.605C106.171 56.854 106.549 57.1576 106.885 57.5073C106.928 57.5634 106.928 57.5775 106.955 57.6053L92.0242 66.239L90.0603 67.375C89.8407 67.2171 89.6143 67.0656 89.3767 66.9316L85.599 64.7462L86.1414 64.4315L98.7189 57.1589C98.7526 57.137 98.7853 57.1136 98.8168 57.0887C99.843 56.3599 101.086 55.8856 102.304 55.7765C102.456 55.7765 102.606 55.7204 102.758 55.7204L102.757 55.7236Z" id="Shape" fill="#000000" stroke="none" />
  </g>
</svg>

<?xml version="1.0" encoding="utf-8"?>
<!-- Generator: Adobe Illustrator 25.4.1, SVG Export Plug-In . SVG Version: 6.00 Build 0)  -->
<svg version="1.1" id="Calque_1" xmlns="http://www.w3.org/2000/svg" xmlns:xlink="http://www.w3.org/1999/xlink" x="0px" y="0px"
	 viewBox="0 0 126.25 99.91" style="enable-background:new 0 0 126.25 99.91;" xml:space="preserve">
<g id="Delivery">
	<path id="Shape" d="M83.15,0.06c-0.24-0.01-0.48,0.06-0.69,0.18L59.79,13.33c-0.64,0.21-1.02,0.86-0.88,1.52v26.19
		c0,0.47,0.25,0.91,0.66,1.14L82.46,55.4c0.01,0,0.03,0,0.04,0c0.02,0.02,0.04,0.04,0.06,0.06c0.02,0.02,0.05,0.04,0.07,0.06
		c0.01,0,0.03,0,0.04,0c0.02,0.02,0.05,0.04,0.07,0.06c0.02,0,0.04,0,0.06,0c0.02,0,0.05,0,0.07,0c0.02,0,0.04,0,0.06,0
		c0.03,0,0.06,0,0.08,0c0.01,0,0.03,0,0.04,0c0.02,0,0.05,0,0.07,0c0.02,0,0.04,0,0.06,0c0.02,0,0.05,0,0.07,0c0.02,0,0.04,0,0.06,0
		c0.02,0,0.05,0,0.07,0c0.02,0,0.04,0,0.06,0c0.02-0.02,0.05-0.04,0.07-0.06c0.02,0,0.04,0,0.06,0c0.02-0.02,0.05-0.04,0.07-0.06
		c0.02-0.02,0.03-0.04,0.04-0.06c0.03-0.02,0.06-0.04,0.08-0.06l22.89-13.22c0.41-0.24,0.66-0.67,0.66-1.14V14.75
		c0.11-0.62-0.24-1.23-0.83-1.45L83.75,0.18C83.56,0.07,83.35,0.01,83.13,0L83.15,0.06z M83.1,2.89l8.58,4.96L71.4,19.53l-8.55-4.94
		L83.1,2.89z M94.32,9.37l9.04,5.22L83.1,26.3l-9.07-5.24L94.32,9.37L94.32,9.37z M104.68,16.87v23.4l-20.26,11.7v-23.4
		L104.68,16.87z M61.53,16.87l8.71,5.03v5.51c0,0.47,0.25,0.91,0.66,1.14c0.41,0.24,0.91,0.24,1.32,0c0.41-0.24,0.66-0.67,0.66-1.14
		v-4l8.91,5.15v23.4l-8.94-5.17v-6.46c0.01-0.36-0.13-0.7-0.38-0.95c-0.25-0.25-0.59-0.39-0.95-0.39c-0.73,0.01-1.31,0.61-1.3,1.33
		v4.94l-8.68-5.02L61.53,16.87z M47.96,44.29c-0.7,0-1.4,0.1-2.11,0.29l-5.17,1.39l-5.17,1.39l-5.17,1.39l-5.17,1.39l-3.7,0.99V49.8
		c0-2.62-2.4-4.56-5.09-4.56H5.09C2.4,45.24,0,47.18,0,49.8v31.23c0,2.62,2.39,4.56,5.09,4.56h11.3c2.7,0,5.09-1.94,5.09-4.56v-0.98
		c0.09-0.01,0.19-0.03,0.28-0.06l10.31-2.76l2.64-0.62c0.37-0.07,0.74-0.1,1.11-0.1c0.74,0,1.48,0.14,2.18,0.43
		c0.7,0.29,1.35,0.71,1.93,1.29l3.15,3.16l3.15,3.16l3.15,3.16l3.15,3.16l3.15,3.16c0.01,0,0.03,0,0.04,0l3.68,3.55
		c0.04,0.05,0.09,0.1,0.15,0.14c0.05,0.04,0.1,0.08,0.16,0.11c0.87,0.65,2.14,1.47,3.4,1.81c1.04,0.28,2.14,0.36,3.23,0.22
		c1.09-0.14,2.17-0.49,3.18-1.07l52.49-30.35c4.03-2.33,5.42-7.52,3.09-11.56c-0.73-1.26-1.74-2.27-2.9-2.99
		c-1.28-0.79-2.75-1.21-4.24-1.24c-1.49-0.06-3.01,0.33-4.4,1.14l-4.25,2.46c-0.17-0.21-0.34-0.41-0.52-0.6
		c-0.48-0.5-1.03-0.93-1.62-1.3c-1.56-1.02-3.36-1.37-5.08-1.22c-1.69,0.15-3.32,0.77-4.7,1.73L84.85,62.1l-1.57,0.91
		c-0.09,0.05-0.18,0.11-0.25,0.18L52.46,45.51c-0.05-0.04-0.1-0.08-0.16-0.11c-0.94-0.54-1.98-0.9-3.06-1.05
		c-0.41-0.06-0.82-0.08-1.24-0.07L47.96,44.29z M47.96,46.96c1.02-0.06,2.07,0.23,3.04,0.79l37.05,21.43
		c0.29,0.17,0.55,0.35,0.8,0.55c0.11,0.15,0.25,0.28,0.42,0.38c1.83,1.82,2.27,4.67,0.92,7.03c-1.62,2.81-5.13,3.76-7.94,2.13
		l-5.88-3.4l-13.41-7.75c-0.41-0.25-0.92-0.25-1.33-0.02c-0.41,0.24-0.67,0.68-0.67,1.15c0,0.48,0.26,0.91,0.68,1.14l13.41,7.76
		l5.88,3.4c4.03,2.33,9.21,0.94,11.54-3.1c1.71-2.97,1.41-6.55-0.47-9.17l22.86-13.22c1.93-1.12,4.19-1.01,5.95,0.07
		c0.8,0.49,1.49,1.18,2,2.06c1.62,2.81,0.68,6.34-2.13,7.96L68.19,96.5c-0.7,0.41-1.45,0.65-2.19,0.74c-0.75,0.1-1.5,0.06-2.22-0.15
		c-0.44-0.11-1.92-0.94-2.55-1.41l-3.68-3.55l-3.14-3.15l-3.15-3.16l-3.15-3.16l-3.15-3.16l-3.15-3.16
		c-0.82-0.83-1.78-1.45-2.8-1.86c-1.02-0.41-2.1-0.62-3.18-0.62c-0.51,0-1.03,0.06-1.53,0.14c-0.04,0.02-0.08,0.04-0.13,0.06
		l-2.71,0.63c-0.01,0-0.03,0-0.04,0l-9.93,2.66V53.86l4.38-1.17l5.17-1.39l5.17-1.39l5.17-1.39l4.87-1.31
		c0.12,0,0.24-0.02,0.36-0.06c0.45-0.13,0.91-0.19,1.38-0.19L47.96,46.96z M16.39,47.87c1.49,0,2.46,0.95,2.46,1.92v31.23
		c0,0.97-0.97,1.92-2.46,1.92h-4.33v-3.88v-3.69c0.01-0.36-0.13-0.7-0.39-0.95s-0.6-0.39-0.95-0.38c-0.73,0.01-1.31,0.61-1.29,1.34
		v3.69v3.87H5.09c-1.49,0-2.46-0.95-2.46-1.92V49.79c0-0.97,0.97-1.92,2.46-1.92L16.39,47.87z M102.76,55.72
		c1.05,0,2.07,0.24,2.96,0.83c0.01,0.02,0.03,0.04,0.04,0.06c0.41,0.25,0.79,0.55,1.12,0.9c0.04,0.06,0.04,0.07,0.07,0.1
		l-14.93,8.63l-1.96,1.14c-0.22-0.16-0.45-0.31-0.68-0.44l-3.78-2.19l0.54-0.31l12.58-7.27c0.03-0.02,0.07-0.05,0.1-0.07
		c1.03-0.73,2.27-1.2,3.49-1.31C102.46,55.78,102.61,55.72,102.76,55.72L102.76,55.72z"/>
</g>
</svg>
